X: 21192
T: GAE TO THE KYE WI' ME JAMIE
Q: "Briskly"
%R: slip-jig
B: "Edinburgh Repository of Music" v.2 p.119 #2
F: http://digital.nls.uk/special-collections-of-printed-music/pageturner.cfm?id=87776133
Z: 2015 John Chambers <jc:trillian.mit.edu>
M: 9/8
L: 1/8
K: Dm
|:\
A>BA A2G FED | F>GF A2f e3 |\
A>BA A2G FED | F2G Ad^c d3 :|\
|:\
A>BA f2f ed^c | A>BA f2f e3 |\
A>BA f2f efg | {g}f>ed Ad^c d3 H:|

%%newpage

%%sep 2 1 500
%%sep 1 1 500

